X: 76
T:Lucky Number (#272), The
M:4/4
L:1/8
S:Rice-Walsh manuscript
R:Reel
K:D
EFGA BdAd|BdAd BdAF|D2 FD ADFD|ADFD ADFD|
EFGA BdAd|BdAd BdAd|B2 eg fagb|agfg e2 ef||
gebe gebe|gebe gebe|(3fga fd dfaf|dfaf dfaf|
gebe gebe|gebe gebe|(3fga fd dfaf|(3efg ec dBAF||

